assets/icons/qvision/delete_outline.svg

<svg xmlns="http://www.w3.org/2000/svg" height="24" viewBox="0 0 24 24" width="24"><path d="M0 0h24v24H0V0z" fill="none"/><path d="M6 19c0 1.1.9 2 2 2h8c1.1 0 2-.9 2-2V7H6v12zM8 9h8v10H8V9zm7.5-5l-1-1h-5l-1 1H5v2h14V4z"/></svg>

<svg width="24" height="24" viewBox="0 0 24 24" fill="none" xmlns="http://www.w3.org/2000/svg">
<g clip-path="url(#clip0_147_4086)">
<path d="M6 19C6 20.1 6.9 21 8 21H16C17.1 21 18 20.1 18 19V7H6V19ZM8 9H16V19H8V9ZM15.5 4L14.5 3H9.5L8.5 4H5V6H19V4H15.5Z" fill="#323232"/>
</g>
<defs>
<clipPath id="clip0_147_4086">
<rect width="24" height="24" fill="white"/>
</clipPath>
</defs>
</svg>
